templates/default/images/icon_rate_4.svg

<svg width="280" height="267" viewBox="0 0 280 267" fill="none" xmlns="http://www.w3.org/2000/svg">
<g clip-path="url(#clip0_7_80)">
<path d="M112 62.83L140 25.15L184.84 85.49L256.08 109.49L212.55 170.78L211.74 245.95L140 223.49L112 232.26V62.83ZM140 0L85.92 72.77L0 101.72L31.15 145.58L52.5 175.64L53.5 266.3L140 239.21L226.52 266.3L227.52 175.64L280 101.72L194.08 72.78L140 0Z" fill="#B54F00"/>
</g>
<defs>
<clipPath id="clip0_7_80">
<rect width="280" height="266.3" fill="white"/>
</clipPath>
</defs>
</svg>

<?xml version="1.0" encoding="utf-8"?>
<!-- Generator: Adobe Illustrator 26.0.1, SVG Export Plug-In . SVG Version: 6.00 Build 0)  -->
<svg version="1.1" id="Layer_1" xmlns="http://www.w3.org/2000/svg" xmlns:xlink="http://www.w3.org/1999/xlink" x="0px" y="0px"
	 viewBox="0 0 280 266.3" style="enable-background:new 0 0 280 266.3;" xml:space="preserve">
<style type="text/css">
	.st0{fill:#B54F00;}
</style>
<path class="st0" d="M112,62.8l28-37.7l44.8,60.3l71.2,24l-43.5,61.3l-0.8,75.2L140,223.5l-28,8.8V62.8z M140,0L85.9,72.8L0,101.7
	l0,0l31.2,43.9l21.3,30.1l1,90.7l86.5-27.1l0,0l86.5,27.1l1-90.7l52.5-73.9l-85.9-28.9L140,0z"/>
</svg>
